X:202
%%pagewidth 9in
%%vocalfont Baskerville10Pro 14
T:Remember, O thou man
M:3/4
L:1/8
K:Bb
%%score 1 2
V:1 clef-treble
V:2 clef-bass octave=-1
%%pos vol above
[V:1][B,G]2[DG]2[B,G]2|[DB]3[C^FA][B,G]2|^F3F[DG]2 & C2x4|A3^FD2 &D2x4|[DG]2[B,G]2[EG]2|
w:Re-mem-ber, O thou man, O thou ma, O thou man, Re-mem-ber,
[V:2]G,2B,2G,2|G3DE2|A,4B,2|^F,A,D3C|B,2E2C2|
[V:1][DGB]3[D^FA][DG]2|[C^F]2F2[B,DG]2|[A,^FA]6||[D=FB]2[DFd]2[DFd]2|[Fd]3[Fc][DB]2 &D2x4|
w:O thou man, thy time is spent. Re-mem-ber, O thou man,
[V:2]D3CB,2|A,4G,2|D,2D2C2||B,2B2B2|B3AG2|
[V:1][FA]2[Fc]2[Fc]2|[Ec]3[GB][^FA]2|[DGB]2[D^FA]2[B,G]2|^F3GA2 & C2D2D2|B3A[D^FB]2 & D2E2x2|[B,G]6||
w:how thou art dead and gone, And I did what I can, there-fore re-pent.
[V:2]F2A2A2|c3Gd2|G2D2E2|A,2B,2^F,2|G,2C2D2|G6||

